elements/rpg-character/lib/base/1R.svg

<svg xmlns="http://www.w3.org/2000/svg" fill="none" width="113" height="142" viewBox="0 0 113 142"><path d="M33 42h-5V32h5v-5h5v5h5v10h-5v-5h-5v5Zm35 0h-5V32h5v-5h5v5h5v10h-5v-5h-5v5Z" fill="#fff" fill-opacity=".75"/><path d="M73 37v5h5v-5h-5Z" fill="#CCC" fill-opacity=".5"/><path d="M88 47H78V32h-5v-5h-5v5h-5v15H43V32h-5v-5h-5v5h-5v15h-5V27h5V17h55v10h5v20Z" fill="#C4C4C4" fill-opacity=".5"/><path d="M63 22H43v-5h40v10h5v20H78V32h-5v-5H63v-5Z" fill="#A4A2A2" fill-opacity=".5"/><path d="M83 57H28v20h5v5h45v-5h5V57Zm-55 60v-5h5v5h-5Zm50 0v-5h10v5H78Z" fill="#DEDDDD" fill-opacity=".25"/><path d="M78 62H28v-5h55v20h-5v5H68v-5h5v-5h5V62Z" fill="#C4C4C4" fill-opacity=".25"/><path d="M48 77v-5h10v5H48Zm-15 35h-5v5h5v-5Zm50 0h-5v5h5v-5Z" fill="#C4C4C4" fill-opacity=".25"/><path d="M38 47h-5v-5h5v5Zm35 0h-5v-5h5v5Z" fill="#AAA" fill-opacity=".75"/><path d="M23 57h-5v20h-5v10h15v-5h-5V57Zm70 0h-5v25H78v5h5v5h5v-5h10V77h-5V57Z" fill="#8F8F8F" fill-opacity=".5"/><path d="M13 87v5h10v25h5v5h5v10h15v-5h10v5h20v-10h10v-5h5v-10h-5V92h10v-5h5V77h-5V57h5V47H93V27h-5V17h-5v-5H28v5h-5v10h-5v20H8v10h5v20H8v10h5Zm15 0v-5h-5V57h-5v20h-5v10h15Zm0 0h5v30h-5V87Zm5-45h-5v5h-5V27h5V17h55v10h5v20H78v-5h-5v-5h-5v5h-5v5H43v-5h-5v-5h-5v5Zm0 0h5v5h-5v-5Zm35 0v5h5v-5h-5Zm10 40h10V57h5v20h5v10H88v5h-5v-5h-5v-5Zm0 0H33v-5h-5V57h55v20h-5v5Zm5 10v15h5v10H78V92h5Zm-25 35h15V87H38v40h10v-5h10v5ZM33 62h5v5h-5v-5Zm35 0v5h5v-5h-5Z" fill="#000" fill-rule="evenodd" clip-rule="evenodd"/><path d="M33 142H0V0h113v142H33Zm15-10H33v-10h-5v-5h-5V92H13v-5H8V77h5V57H8V47h10V27h5V17h5v-5h55v5h5v10h5v20h10v10h-5v20h5v10h-5v5H88v15h5v10h-5v5H78v10H58v-5H48v5Z" fill="transparent" fill-rule="evenodd" clip-rule="evenodd"/><path d="M58 122h-5v-10h20v5H58v5Z" fill="#000"/></svg>

<svg width="113" height="142" viewBox="0 0 113 142" fill="none" xmlns="http://www.w3.org/2000/svg">
<path d="M33 42H28V32H33V27H38V32H43V42H38V37H33V42Z" fill="white" fill-opacity="0.75"/>
<path d="M68 42H63V32H68V27H73V32H78V42H73V37H68V42Z" fill="white" fill-opacity="0.75"/>
<path d="M73 37V42H78V37H73Z" fill="#CCCCCC" fill-opacity="0.5"/>
<path d="M88 47H78V32H73V27H68V32H63V47H43V32H38V27H33V32H28V42V47H23V27H28V17H83V27H88V47Z" fill="#C4C4C4" fill-opacity="0.5"/>
<path d="M63 22H43V17H83V27H88V47H78V32H73V27H63V22Z" fill="#A4A2A2" fill-opacity="0.5"/>
<path d="M83 57H28V72V77H33V82H78V77H83V67V57Z" fill="#DEDDDD" fill-opacity="0.25"/>
<path d="M28 117V112H33V117H28Z" fill="#DEDDDD" fill-opacity="0.25"/>
<path d="M78 117V112H88V117H78Z" fill="#DEDDDD" fill-opacity="0.25"/>
<path d="M78 62H28V57H83V67V77H78V82H68V77H73V72H78V62Z" fill="#C4C4C4" fill-opacity="0.25"/>
<path d="M48 77V72H58V77H48Z" fill="#C4C4C4" fill-opacity="0.25"/>
<path d="M33 112H28V117H33V112Z" fill="#C4C4C4" fill-opacity="0.25"/>
<path d="M83 112H78V117H83V112Z" fill="#C4C4C4" fill-opacity="0.25"/>
<path d="M38 47H33V42H38V47Z" fill="#AAAAAA" fill-opacity="0.75"/>
<path d="M73 47H68V42H73V47Z" fill="#AAAAAA" fill-opacity="0.75"/>
<path d="M23 57H18V77H13V87H28V82H23V57Z" fill="#8F8F8F" fill-opacity="0.5"/>
<path d="M93 57H88V82H78V87H83V92H88V87H98V77H93V57Z" fill="#8F8F8F" fill-opacity="0.5"/>
<path fill-rule="evenodd" clip-rule="evenodd" d="M13 87V92H23V117H28V122H33V132H48V127H58V132H78V122H88V117H93V107H88V92H98V87H103V77H98V57H103V47H93V27H88V17H83V12H28V17H23V27H18V47H8V57H13V77H8V87H13ZM28 87V82H23V57H18V77H13V87H28ZM28 87H33V117H28V87ZM33 42H28V47H23V27H28V17H83V27H88V47H78V42H73V37H68V42H63V47H43V42H38V37H33V42ZM33 42H38V47H33V42ZM68 42V47H73V42H68ZM78 82H88V57H93V77H98V87H88V92H83V87H78V82ZM78 82H33V77H28V57H83V77H78V82ZM83 92V107H88V117H78V92H83ZM58 127H73V87H38V127H48V122H58V127ZM33 62H38V67H33V62ZM68 62V67H73V62H68Z" fill="black"/>
<path fill-rule="evenodd" clip-rule="evenodd" d="M33 142H0V0H113V142H33ZM48 132H33V122H28V117H23V92H13V87H8V77H13V57H8V47H18V27H23V17H28V12H83V17H88V27H93V47H103V57H98V67V77H103V87H98V92H88V107H93V117H88V122H78V132H58V127H48V132Z" fill="transparent"/>
<path d="M58 122H53V112H73V117H58V122Z" fill="black"/>
</svg>
